img/icon/menu-icon/test-2.svg

<svg width="24" height="24" viewBox="0 0 24 24" fill="none" xmlns="http://www.w3.org/2000/svg">
<path d="M20 7.83333H15.4286C14.7977 7.83333 14.2857 7.31067 14.2857 6.66667V2M4 13.6667V4.33333C4 3.04417 5.02286 2 6.28571 2H14.4823C15.088 2 15.6697 2.24617 16.0983 2.68367L19.3303 5.983C19.7589 6.4205 20 7.01433 20 7.63267V20.6667C20 21.9558 18.9771 23 17.7143 23H13.1429M5.84 21.1205C6.98857 22.293 8.848 22.293 9.99657 21.1205C11.144 19.9503 11.144 18.0498 9.99657 16.8773C8.848 15.7048 6.98857 15.7048 5.84 16.8773C4.69143 18.0498 4.69143 19.948 5.84 21.1205ZM5.84 21.1205L4 23M8.57143 11.3333H15.4286M13.1429 14.8333H15.4286" stroke="#848E9F" stroke-width="1.2857" stroke-linecap="round" stroke-linejoin="round"/>
</svg>

<svg width="24" height="24" fill="none" xmlns="http://www.w3.org/2000/svg"><path d="M20 7.833h-4.571a1.155 1.155 0 0 1-1.143-1.166V2M4 13.667V4.333C4 3.044 5.023 2 6.286 2h8.196a2.26 2.26 0 0 1 1.616.684l3.232 3.299c.429.438.67 1.031.67 1.65v13.034C20 21.956 18.977 23 17.714 23h-4.571M5.84 21.12a2.896 2.896 0 0 0 4.157 0 3.046 3.046 0 0 0 0-4.243 2.896 2.896 0 0 0-4.157 0 3.043 3.043 0 0 0 0 4.244zm0 0L4 23m4.571-11.667h6.858m-2.286 3.5h2.286" stroke="#848E9F" stroke-width="1.286" stroke-linecap="round" stroke-linejoin="round"/></svg>
